X: 7209
T: Cissie's
R: reel
M: 4/4
K: Aminor
c'b|:aged eede|efff ee^ge|^gaed eede|edcB Aac'b|
aged eede|efff e^ggg|^gaed eede|1 edcB A2e/^f/g:|2 edcB A2AG||
|:EAAG ABcA|BFFF AEEE|EAAG ABcA|^D2EA D2AG|
EAAG ABcA|BFFF AEEE|^DEA/B/c ^d=dcA|1 cAGc A3G:|2 cAGc A^gab||

